X:28
T:Bowyer's Whim. THO2.028
O:London
M:C
L:1/8
Q:1/2=80
B:Thompson's Compleat Coll. of 200 Favourite Country Dances, vol.2,1765
Z:Transcribed and edited by Fynn Titford-Mock, 2007
Z:abc's:AK/Fiddler's Companion/VMP 2009
K:G
(BG)(BG) (Ac) Tc2|(BG)(BG) (DA) TA2|(BG)(BG) (ABcd)|(edcB) A2A2:|
|:(dB)(dB) (ce) Te2|(cA)(cA) (Bd) Td2|(BG)(BG) (ABcd)|egdc BG TG2:|
|:geTdB geTdB|geTdB cA TA2|geTdB geTdB|cedc BG G2:|

